Root/Resource/Map.svg

<svg width="24" height="24" version="1.1" viewBox="0 0 28.8 28.8" xmlns="http://www.w3.org/2000/svg">
	<g transform="matrix(1.0952 0 0 1.0952 1.2453 -.6941)">
		<path d="m20.5 4.8812-0.16 0.03-5.34 2.07-6-2.1-5.64 1.9c-0.21 0.07-0.36 0.25-0.36 0.48v15.12c0 0.28 0.22 0.5 0.5 0.5l0.16-0.03 5.34-2.07 6 2.1 5.64-1.9c0.21-0.07 0.36-0.25 0.36-0.48v-15.12c0-0.28-0.22-0.5-0.5-0.5zm-5.5 16-6-2.11v-11.89l6 2.11z" fill="#69b7cf"/>
		<path d="m0 0h24v24h-24z" fill="none"/>
	</g>
	<g transform="matrix(1.1576 0 0 1.1576 .50865 .32319)">
		<path d="m0 0h24v24h-24z" fill="none"/>
		<path d="m19 3h-14c-1.1 0-2 0.9-2 2v14c0 1.1 0.9 2 2 2h14c1.1 0 2-0.9 2-2v-14c0-1.1-0.9-2-2-2zm0 16h-14v-14h14zm-10.43-13h-2.57v2.58c1.42 0 2.57-1.16 2.57-2.58zm3.43 0h-1.71c0 2.36-1.92 4.29-4.29 4.29v1.71c3.32 0 6-2.69 6-6zm2.14 5.86-3 3.87-2.14-2.58-3 3.85h12z" fill="#69b7cf"/>
	</g>
</svg>

<svg xmlns='http://www.w3.org/2000/svg'
	 width='20' height='20'
	 viewBox="0 0 24 24">
	<g
		transform="matrix(1.1668521,0,0,1.1668521,-2.0022246,-2.0022246)">
		<path
			d="m 20.5,4.8812448 -0.16,0.03 -5.34,2.07 -6,-2.1 -5.64,1.9 c -0.21,0.07 -0.36,0.25 -0.36,0.48 V 22.381234 c 0,0.28 0.22,0.5 0.5,0.5 l 0.16,-0.03 5.34,-2.07 6,2.1 5.64,-1.9 c 0.21,-0.07 0.36,-0.25 0.36,-0.48 V 5.3812448 c 0,-0.28 -0.22,-0.5 -0.5,-0.5 z M 15,20.881234 l -6,-2.11 V 6.8812448 l 6,2.11 z"
			fill="#69b7cf" />
		<path
			d="M 0,0 H 24 V 24 H 0 Z"
			fill="none" />
	</g>
	<g
		transform="matrix(1.2333704,0,0,1.2333704,-2.7870969,-0.91835483)">
		<path
			d="M 0,0 H 24 V 24 H 0 Z"
			fill="none" />
		<path
			d="M 19,3 H 5 C 3.9,3 3,3.9 3,5 v 14 c 0,1.1 0.9,2 2,2 h 14 c 1.1,0 2,-0.9 2,-2 V 5 C 21,3.9 20.1,3 19,3 Z m 0,16 H 5 V 5 H 19 Z M 8.57,6 H 6 V 8.58 C 7.42,8.58 8.57,7.42 8.57,6 Z M 12,6 h -1.71 c 0,2.36 -1.92,4.29 -4.29,4.29 V 12 c 3.32,0 6,-2.69 6,-6 z m 2.14,5.86 -3,3.87 L 9,13.15 6,17 h 12 z"
			style="fill:#69b7cf;fill-opacity:1" />
	</g>
</svg>
